X:505
T:Jackey Tarr
L:1/8
C:Thomas Wilson, 1816
M:2/2
R:Reel
S:Colin Hume's website,  colinhume.com  - chords can also be printed below the stave.
Q:1/2=96
K:Em
P:A
|: zB | "Em"e2ef g2fe | "G"d2B2 B2AB | "D"d^cde fgef | "/"d2A2 A2Bd |
"Em"eBef g2fe | "G"dBGB d2cB | "D"AGFE DEFA | "Em"G2E2 E2 :|
P:B
|: GA | "Em"BGEG BGEG | "/"BAGF E2FG | "D"AFDF dFDF | "/"AGFE D2Bd |
"Em"e2ef gfge | "G"dBGB d2cB | "D"AGFE DEFA | "Em"G2E2 E2 :|

